!!!SOCIAL_FUNCTION: hunting
!!!PDT:	1943
!!!LING_GROUP: Muskogean
!!!LANG: Non-Tone
Specific Region: Oklahoma, California, Mississippi, Louisiana, Texas, Alabama
!!!REG: Southeast
!!!COM: Anon.
!!!OTL: Hunting Song
!!!ODT: <1933//
!!!MPN: Lysander Tubby
!!!MLC: Philadelphia, Mississippi, United States of America
!! Song was recorded in January 1933.
!!!AMT: irregular
!!!RWG: Transcribed pitches, durations, and meters are only approximate.
**kern
*ICvox
*Imale
*clefF4
*k[b-e-a-d-]
*M2/4
*MM84
*[A,B,B,C,C,D,E,D,F]
*>A
=1-
8F
[8F
8F]
16C
16r
=2
4F
4F
=3
8F
8E-
4E-
=4
8.B-
16A-
4A-
=5
8F
8F
4r
=6
8F
8F
4F
=7
4c
8B-
8A-
=8
4B-
4A-
=9
8F
8F
4r
=10
8F
8F
4F
=11
8F
8E-
4F
=12
4B-
4A-
=13
8F
8F
4r
*M5/8
=14
4F
4F
8c
*M3/4
=15
4B-
8c
8B-
4A-
*M2/4
=16
8F
8F
4r
*>B
=!|:17
8F
8F
4F
=18
8F
8E-
4E-
=19
4B-
4A-
=20
8F
8F
4r
=21
8F
8F
4F
=22
4c
8B-
8A-
=23
4B-
4A-
=24
4F
8E-
8C
=25
8F
8F
4F
=26
8F
8E-
8E-
8r
=27
4B-
4A-
=28
8F
8F
4r
*>C
*M5/8
=:||:29
4F
4F
8c
*M3/4
=30
4B-
!! accelerando
8c
8B-
4A-
*M2/4
=31
8F
8F
4r
=32
8F
8F
4F
*MM100
=33
8F
8E-
4E-
=34
4B-
4A-
=35
8F
8F
4r
=36
8F
8F
4F
=37
8F
8E-
4E-
=38
4B-
4A-
=39
8F
8F
4r
=40
8F
8F
4F
*>D
*MM84
=:||:41
4c
8B-
8A-
=42
4B-
4A-
=43
4F
8E-
8C
=44
8F
8F
4F
=45
8F
8E-
4E-
=46
4B-
4A-
=47
8F
8F
4r
=48
8F
8F
4F
=49
8F
8E-
4E-
=50
4B-
4A-
=51
8F
8F
8F
8r
*>E
=52
8F
8F
4F
*>F
=:|!53
*M5/8
4F
4F
8c
*M3/4
=54
4B-
8c
8B-
4A-
*M2/4
=55
8F
8F
4r
=56
*M5/8
=57
4F
4F
8c
*M3/4
=58
8B-
8r
8A-
8F
4A-
*M2/4
=59
8F
8F
4r
=60
8F
8F
4F
=61
8F
8E-
8E-
8r
=62
4B-
4A-
=63
8F
8F
4r
=64
8F
8F
4F
==
*-
!!!CNT: Choctaw
!!!TXO: Choctaw
!!!OCY: United States
!!!OCL: Frances Densmore
!!!YOR: Frances Densmore, "Choctaw Music"
!!!YOR: Bulletin 136, page 177, No. 63
!!!PPR: Smithsonian Institution, Bureau of American Ethnology
!!!PPR: Government Printing Office
!!!PDT: 1943
!!!PPP: Washington, DC, United States of America
!!!YEC: Electronic Copyright 2000 David Huron
!!!YER: August 2000
!!!YEN: United States of America
!!!ENC: David Huron
!!!RDT: August 30, 2000
!!!EEV: Release 1.0
!!!AIN: vox
